common/src/main/resources/icons/expui/breakpoints/breakpointFieldUnsuspendentValid.svg

<svg xmlns="http://www.w3.org/2000/svg" width="14" height="14" viewBox="0 0 24 24"><defs><mask id="a"><path fill="#fff" d="M12 20c-4.41 0-8-3.59-8-8s3.59-8 8-8 8 3.59 8 8-3.59 8-8 8m0-18A10 10 0 0 0 2 12a10 10 0 0 0 10 10 10 10 0 0 0 10-10A10 10 0 0 0 12 2M7 13h10v-2H7"/><path stroke="#000" stroke-width="4.800000000000001" d="m23.2 1.6-9.6 9.6-4.4-4.4 1.128-1.128L13.6 8.936 22.072.472z"/><path fill="#fff" d="m23.2 1.6-9.6 9.6-4.4-4.4 1.128-1.128L13.6 8.936 22.072.472z"/></mask></defs><g mask="url(#a)"><path fill="#ab7967" d="M12 20c-4.41 0-8-3.59-8-8s3.59-8 8-8 8 3.59 8 8-3.59 8-8 8m0-18A10 10 0 0 0 2 12a10 10 0 0 0 10 10 10 10 0 0 0 10-10A10 10 0 0 0 12 2M7 13h10v-2H7"/><path fill="#9CCC65" stroke="#9CCC65" stroke-width="2.4000000000000004" d="m23.2 1.6-9.6 9.6-4.4-4.4 1.128-1.128L13.6 8.936 22.072.472z"/></g></svg>

<!--
  - The MIT License (MIT)
  -
  - Copyright (c) 2015-2023 Elior "Mallowigi" Boukhobza
  -
  - Permission is hereby granted, free of charge, to any person obtaining a copy
  - of this software and associated documentation files (the "Software"), to deal
  - in the Software without restriction, including without limitation the rights
  - to use, copy, modify, merge, publish, distribute, sublicense, and/or sell
  - copies of the Software, and to permit persons to whom the Software is
  - furnished to do so, subject to the following conditions:
  -
  - The above copyright notice and this permission notice shall be included in all
  - copies or substantial portions of the Software.
  -
  - THE SOFTWARE IS PROVIDED "AS IS", WITHOUT WARRANTY OF ANY KIND, EXPRESS OR
  - IMPLIED, INCLUDING BUT NOT LIMITED TO THE WARRANTIES OF MERCHANTABILITY,
  - FITNESS FOR A PARTICULAR PURPOSE AND NONINFRINGEMENT. IN NO EVENT SHALL THE
  - AUTHORS OR COPYRIGHT HOLDERS BE LIABLE FOR ANY CLAIM, DAMAGES OR OTHER
  - LIABILITY, WHETHER IN AN ACTION OF CONTRACT, TORT OR OTHERWISE, ARISING FROM,
  - OUT OF OR IN CONNECTION WITH THE SOFTWARE OR THE USE OR OTHER DEALINGS IN THE
  - SOFTWARE.
  -
  -->


<svg xmlns="http://www.w3.org/2000/svg" version="1.1" width="14px" height="14px" viewBox="0 0 24 24">
  <defs>
    <mask id="Mask">
      <path fill="white"
            d="M12,20C7.59,20 4,16.41 4,12C4,7.59 7.59,4 12,4C16.41,4 20,7.59 20,12C20,16.41 16.41,20 12,20M12,2A10,10 0 0,0 2,12A10,10 0 0,0 12,22A10,10 0 0,0 22,12A10,10 0 0,0 12,2M7,13H17V11H7"/>
      <path fill="black" transform="scale(0.8) translate(8,-5)" stroke="black" stroke-width="6"
            d="M21,7L9,19L3.5,13.5L4.91,12.09L9,16.17L19.59,5.59L21,7Z"/>
      <path fill="white" transform="scale(0.8) translate(8,-5)"
            d="M21,7L9,19L3.5,13.5L4.91,12.09L9,16.17L19.59,5.59L21,7Z"/>
    </mask>
  </defs>
  <g mask="url(#Mask)">
    <path id="icon" fill="#ab7967"
          d="M12,20C7.59,20 4,16.41 4,12C4,7.59 7.59,4 12,4C16.41,4 20,7.59 20,12C20,16.41 16.41,20 12,20M12,2A10,10 0 0,0 2,12A10,10 0 0,0 12,22A10,10 0 0,0 22,12A10,10 0 0,0 12,2M7,13H17V11H7"/>
    <path id="valid" fill="#9CCC65" transform="scale(0.8) translate(8,-5)" stroke="#9CCC65" stroke-width="3"
          d="M21,7L9,19L3.5,13.5L4.91,12.09L9,16.17L19.59,5.59L21,7Z"/>
  </g>
</svg>
